communes/5063.svg

<?xml version="1.0" encoding="UTF-8"?>
<svg version="1.0" viewBox="0 0 603 763" xmlns="http://www.w3.org/2000/svg" xmlns:cc="http://web.resource.org/cc/" xmlns:dc="http://purl.org/dc/elements/1.1/" xmlns:rdf="http://www.w3.org/1999/02/22-rdf-syntax-ns#" xmlns:xlink="http://www.w3.org/1999/xlink">
<metadata>
<rdf:RDF>
<cc:Work rdf:about="">
<dc:format>image/svg+xml</dc:format>
<dc:type rdf:resource="http://purl.org/dc/dcmitype/StillImage"/>
<dc:date>07-AUG-2006</dc:date>
<dc:creator>
<cc:Agent>
<dc:title>Jérôme BLUM (wagner51)</dc:title>
</cc:Agent>
</dc:creator>
<cc:license rdf:resource="http://creativecommons.org/licenses/GPL/2.0/"/>
<dc:coverage/>
<dc:description>Gabarit pour le Projet:Blasons de WIkipédia</dc:description>
<dc:subject>
<rdf:Bag>
<rdf:li>blason suisse modèle gabarit projet blasons</rdf:li>
</rdf:Bag>
</dc:subject>
<dc:language>fr</dc:language>
<dc:title>Gabrit d'un blason suisse</dc:title>
</cc:Work>
<cc:License rdf:about="http://creativecommons.org/licenses/GPL/2.0/">
<cc:permits rdf:resource="http://web.resource.org/cc/Reproduction"/>
<cc:permits rdf:resource="http://web.resource.org/cc/Distribution"/>
<cc:requires rdf:resource="http://web.resource.org/cc/Notice"/>
<cc:permits rdf:resource="http://web.resource.org/cc/DerivativeWorks"/>
<cc:requires rdf:resource="http://web.resource.org/cc/ShareAlike"/>
<cc:requires rdf:resource="http://web.resource.org/cc/SourceCode"/>
</cc:License>
</rdf:RDF>
</metadata>
<defs>
<radialGradient id="a" cx="858.04" cy="579.93" r="300" gradientTransform="matrix(1.215 1.5316e-24 1.4647e-23 1.2667 -839.19 -490.49)" gradientUnits="userSpaceOnUse">
<stop stop-color="#fff" stop-opacity=".31373" offset="0"/>
<stop stop-color="#fff" stop-opacity=".25098" offset=".19"/>
<stop stop-color="#6b6b6b" stop-opacity=".12549" offset=".6"/>
<stop stop-opacity=".12549" offset="1"/>
</radialGradient>
</defs>
<desc>Coat of Arms of Canton of Freiburg (Fribourg)</desc>
<g>
<path d="m1.5 1.5v458.87c0 166.31 134.31 301.13 300 301.13 165.69 0 300-134.82 300-301.13v-458.87h-600z" fill="#fff"/>
<path d="m1.5 1.5v458.87c0 166.31 134.31 301.13 300 301.13v-760h-300z" fill="#5ab532"/>
<path d="m136.89 420.9s4.068 198.36-8.414 285.49c19.445 13.805 40.595 25.351 63.077 34.245-22.44-44.304-16.792-319.73-16.792-319.73h-37.871v0z" fill="#fff" stroke="#000" stroke-linecap="round" stroke-linejoin="round" stroke-width="3"/>
<path d="m152.98 57c-3.734 15.282-19.916 47.121-7.469 71.319 0 0-13.69-1.274-19.916-15.282 0 0-7.467 20.376 12.448 39.48 0 0-16.182 3.82-28.628-10.188 0 0 0 28.019 23.648 34.387 0 0-14.935 8.914-29.873 1.272 0 0 3.736 26.746 29.873 29.293 0 0-19.916 16.555-39.831 3.82 0 0 4.978 29.291 34.853 28.019 0 0-9.957 15.282-38.587 7.642 0 0 2.489 31.84 39.832 22.924 0 0-16.182 28.02-51.035 16.557 0 0 1.245 40.754 47.299 22.924 0 0-21.159 35.66-52.278 17.83 0 0 7.468 42.028 46.055 26.746 0 0-18.67 33.112-57.257 11.461 0 0 8.714 47.121 52.278 28.02 0 0-18.67 34.385-65.969 15.282 0 0 7.469 44.576 48.544 30.565 0 0-32.363 26.745-65.971 0 0 0 3.733 49.668 54.769 49.668 29.873 0 51.035-31.838 51.035-31.838s0 31.838 18.671 42.027c0 0 24.895-17.831 16.18-45.848 0 0 27.805 52.175 72.195 35.658 27.385-10.188 29.874-40.754 29.874-40.754s-43.566 16.557-70.951-14.01c0 0 38.587 21.65 57.258-28.019 0 0-41.075 15.282-63.48-12.734 0 0 42.32 19.103 52.278-26.746 0 0-38.586 12.736-58.503-12.735 0 0 33.608 16.557 51.034-29.291 0 0-38.588 10.188-58.504-12.734 0 0 33.609 12.734 49.79-25.473 0 0-39.831 7.643-54.769-15.283 0 0 33.607 14.01 41.076-29.291 0 0-28.628 16.556-46.054-7.641 0 0 33.606 0 37.343-29.291 0 0-22.406 14.009-39.833 0 0 0 23.651-7.644 28.629-31.84 0 0-13.692 7.641-29.874 0 0 0 23.65-3.82 18.672-33.113 0 0-12.447 11.461-21.162 11.461 0 0 13.693-5.093 8.715-35.659 0 0-7.47 10.189-14.937 11.461 1e-3 -1e-3 12.449-33.113-7.468-70.046z" fill="#fff" stroke="#000" stroke-linecap="round" stroke-linejoin="round" stroke-width="3"/>
<path d="m428.24 420.9s5.648 275.43-16.792 319.73c22.481-8.894 43.631-20.44 63.076-34.245-12.481-87.13-8.414-285.49-8.414-285.49h-37.87v0z" fill="#5ab532" stroke="#000" stroke-linecap="round" stroke-linejoin="round" stroke-width="3"/>
<path d="m442.55 127.04c-7.467-1.272-14.937-11.461-14.937-11.461-4.979 30.566 8.714 35.659 8.714 35.659-8.714 0-21.161-11.461-21.161-11.461-4.979 29.293 18.672 33.113 18.672 33.113-16.183 7.641-29.874 0-29.874 0 4.978 24.197 28.629 31.84 28.629 31.84-17.427 14.009-39.833 0-39.833 0 3.735 29.291 37.343 29.291 37.343 29.291-17.426 24.196-46.055 7.641-46.055 7.641 7.469 43.301 41.077 29.291 41.077 29.291-14.938 22.926-54.769 15.283-54.769 15.283 16.181 38.207 49.789 25.473 49.789 25.473-19.915 22.923-58.503 12.734-58.503 12.734 17.426 45.848 51.034 29.291 51.034 29.291-19.917 25.472-58.503 12.735-58.503 12.735 9.958 45.849 52.278 26.746 52.278 26.746-22.405 28.017-63.48 12.734-63.48 12.734 18.67 49.669 57.258 28.019 57.258 28.019-27.385 30.566-70.951 14.01-70.951 14.01s2.489 30.566 29.874 40.754c44.39 16.517 72.194-35.658 72.194-35.658-8.714 28.017 16.181 45.848 16.181 45.848 18.671-10.189 18.671-42.027 18.671-42.027s21.161 31.838 51.034 31.838c51.036 0 54.77-49.668 54.77-49.668-33.607 26.745-65.971 0-65.971 0 41.075 14.011 48.544-30.565 48.544-30.565-47.298 19.103-65.969-15.282-65.969-15.282 43.564 19.102 52.278-28.02 52.278-28.02-38.587 21.651-57.258-11.461-57.258-11.461 38.587 15.282 46.056-26.746 46.056-26.746-31.119 17.83-52.278-17.83-52.278-17.83 46.054 17.83 47.299-22.924 47.299-22.924-34.853 11.463-51.034-16.557-51.034-16.557 37.343 8.916 39.831-22.924 39.831-22.924-28.63 7.641-38.587-7.642-38.587-7.642 29.875 1.272 34.853-28.019 34.853-28.019-19.915 12.734-39.83-3.82-39.83-3.82 26.137-2.547 29.873-29.293 29.873-29.293-14.938 7.642-29.873-1.272-29.873-1.272 23.648-6.369 23.648-34.387 23.648-34.387-12.446 14.009-28.628 10.188-28.628 10.188 19.915-19.104 12.448-39.48 12.448-39.48-6.226 14.008-19.917 15.282-19.917 15.282 12.448-24.198-3.734-56.037-7.468-71.319-19.916 36.934-7.468 70.046-7.469 70.046z" fill="#5ab532" stroke="#000" stroke-linecap="round" stroke-linejoin="round" stroke-width="3"/>
<path d="m301.5 761.5v-760" fill="none" stroke="#000" stroke-width="3"/>
</g>
<g>
<path d="m1.5 1.5v458.87c0 166.31 134.31 301.13 300 301.13 165.69 0 300-134.82 300-301.13v-458.87h-600z" fill="url(#a)"/>
<path d="m1.5 1.5v458.87c0 166.31 134.31 301.13 300 301.13 165.69 0 300-134.82 300-301.13v-458.87h-600z" fill="none" stroke="#000" stroke-width="3"/>
</g>
</svg>

<?xml version="1.0" encoding="UTF-8" standalone="no"?>
<svg
   xmlns:i="http://ns.adobe.com/AdobeIllustrator/10.0/"
   xmlns:dc="http://purl.org/dc/elements/1.1/"
   xmlns:cc="http://web.resource.org/cc/"
   xmlns:rdf="http://www.w3.org/1999/02/22-rdf-syntax-ns#"
   xmlns:svg="http://www.w3.org/2000/svg"
   xmlns="http://www.w3.org/2000/svg"
   xmlns:xlink="http://www.w3.org/1999/xlink"
   xmlns:sodipodi="http://sodipodi.sourceforge.net/DTD/sodipodi-0.dtd"
   xmlns:inkscape="http://www.inkscape.org/namespaces/inkscape"
   height="763"
   width="603"
   version="1.0"
   id="svg20"
   sodipodi:version="0.32"
   inkscape:version="0.44"
   sodipodi:docname="BlasonVide-coat_of_arms.svg"
   sodipodi:docbase="C:\Documents and Settings\Steve\Bureau\Blasons Suisse pour Wikimedia (par Delta-9)\Communes\[TI]\District de la Leventine">
  <metadata
     id="metadata31">
    <rdf:RDF>
      <cc:Work
         rdf:about="">
        <dc:format>image/svg+xml</dc:format>
        <dc:type
           rdf:resource="http://purl.org/dc/dcmitype/StillImage" />
        <dc:date>07-AUG-2006</dc:date>
        <dc:creator>
          <cc:Agent>
            <dc:title>Jérôme BLUM (wagner51)</dc:title>
          </cc:Agent>
        </dc:creator>
        <cc:license
           rdf:resource="http://creativecommons.org/licenses/GPL/2.0/" />
        <dc:coverage />
        <dc:description>Gabarit pour le Projet:Blasons de WIkipédia</dc:description>
        <dc:subject>
          <rdf:Bag>
            <rdf:li>blason suisse modèle gabarit projet blasons</rdf:li>
          </rdf:Bag>
        </dc:subject>
        <dc:language>fr</dc:language>
        <dc:title>Gabrit d'un blason suisse</dc:title>
      </cc:Work>
      <cc:License
         rdf:about="http://creativecommons.org/licenses/GPL/2.0/">
        <cc:permits
           rdf:resource="http://web.resource.org/cc/Reproduction" />
        <cc:permits
           rdf:resource="http://web.resource.org/cc/Distribution" />
        <cc:requires
           rdf:resource="http://web.resource.org/cc/Notice" />
        <cc:permits
           rdf:resource="http://web.resource.org/cc/DerivativeWorks" />
        <cc:requires
           rdf:resource="http://web.resource.org/cc/ShareAlike" />
        <cc:requires
           rdf:resource="http://web.resource.org/cc/SourceCode" />
      </cc:License>
    </rdf:RDF>
  </metadata>
  <defs
     id="defs29"><linearGradient
   id="linearGradient2893">
  <stop
     style="stop-color:#ffffff;stop-opacity:0.3137255;"
     offset="0"
     id="stop2895" />
  <stop
     id="stop2897"
     offset="0.19"
     style="stop-color:#ffffff;stop-opacity:0.25098041;" />
  <stop
     style="stop-color:#6b6b6b;stop-opacity:0.1254902;"
     offset="0.60000002"
     id="stop2901" />
  <stop
     style="stop-color:#000000;stop-opacity:0.1254902;"
     offset="1"
     id="stop2899" />
</linearGradient>
<linearGradient
   id="linearGradient2955">
  <stop
     style="stop-color:white;stop-opacity:0;"
     offset="0"
     id="stop2965" />
  <stop
     style="stop-color:black;stop-opacity:0.64583331;"
     offset="1"
     id="stop2959" />
</linearGradient>
<radialGradient
   inkscape:collect="always"
   xlink:href="#linearGradient2893"
   id="radialGradient3236"
   gradientUnits="userSpaceOnUse"
   gradientTransform="matrix(1.215027,1.531577e-24,1.464684e-23,1.266667,-839.1924,-490.4894)"
   cx="858.04236"
   cy="579.93323"
   fx="858.04236"
   fy="579.93323"
   r="300" />

			<foreignObject
   requiredExtensions="http://ns.adobe.com/AdobeIllustrator/10.0/"
   x="0"
   y="0"
   width="1"
   height="1"
   id="foreignObject1956">
				<i:pgfRef
   xlink:href="#adobe_illustrator_pgf">
				</i:pgfRef>

			</foreignObject>

			
		
				
			
					
					
					
					
					
					
				</defs>
  <sodipodi:namedview
     inkscape:window-height="691"
     inkscape:window-width="939"
     inkscape:pageshadow="2"
     inkscape:pageopacity="0.0"
     guidetolerance="10.0"
     gridtolerance="10.0"
     objecttolerance="10.0"
     borderopacity="1.0"
     bordercolor="#666666"
     pagecolor="#ffffff"
     id="base"
     inkscape:zoom="0.60814464"
     inkscape:cx="213.11446"
     inkscape:cy="404.81308"
     inkscape:window-x="20"
     inkscape:window-y="42"
     inkscape:current-layer="layer2"
     showgrid="false"
     showguides="true"
     inkscape:guide-bbox="true" />
  <desc
     id="desc22">Coat of Arms of Canton of Freiburg (Fribourg)</desc>
  <g
     inkscape:groupmode="layer"
     id="layer1"
     inkscape:label="Fond écu"
     style="opacity:1"
     sodipodi:insensitive="true">
    <path
       style="opacity:1;fill:white;stroke:none"
       id="path1984"
       d="M 1.5,1.5 L 1.5,460.368 C 1.5,626.679 135.814,761.5 301.5,761.5 C 467.187,761.5 601.5,626.679 601.5,460.368 L 601.5,1.5 L 1.5,1.5 z " />
    <path
       style="opacity:1;fill:#5ab532;stroke:none"
       id="path1965"
       d="M 1.5,1.5 L 1.5,460.368 C 1.5,626.679 135.814,761.5 301.5,761.5 L 301.5,1.5 L 1.5,1.5 z " />
  </g>
  <g
     inkscape:groupmode="layer"
     id="layer2"
     inkscape:label="Meubles"
     style="opacity:1"
     sodipodi:insensitive="true">
    <path
       style="fill:white;stroke:black;stroke-width:3;stroke-linecap:round;stroke-linejoin:round"
       d="M 136.887,420.898 C 136.887,420.898 140.955,619.256 128.473,706.387 C 147.918,720.192 169.068,731.738 191.55,740.632 C 169.11,696.328 174.758,420.898 174.758,420.898 L 136.887,420.898 L 136.887,420.898 z "
       id="path1963" />
    <path
       style="fill:white;stroke:black;stroke-width:3;stroke-linecap:round;stroke-linejoin:round"
       id="path1969"
       d="M 152.982,57 C 149.248,72.282 133.066,104.121 145.513,128.319 C 145.513,128.319 131.823,127.045 125.597,113.037 C 125.597,113.037 118.13,133.413 138.045,152.517 C 138.045,152.517 121.863,156.337 109.417,142.329 C 109.417,142.329 109.417,170.348 133.065,176.716 C 133.065,176.716 118.13,185.63 103.192,177.988 C 103.192,177.988 106.928,204.734 133.065,207.281 C 133.065,207.281 113.149,223.836 93.234,211.101 C 93.234,211.101 98.212,240.392 128.087,239.12 C 128.087,239.12 118.13,254.402 89.5,246.762 C 89.5,246.762 91.989,278.602 129.332,269.686 C 129.332,269.686 113.15,297.706 78.297,286.243 C 78.297,286.243 79.542,326.997 125.596,309.167 C 125.596,309.167 104.437,344.827 73.318,326.997 C 73.318,326.997 80.786,369.025 119.373,353.743 C 119.373,353.743 100.703,386.855 62.116,365.204 C 62.116,365.204 70.83,412.325 114.394,393.224 C 114.394,393.224 95.724,427.609 48.425,408.506 C 48.425,408.506 55.894,453.082 96.969,439.071 C 96.969,439.071 64.606,465.816 30.998,439.071 C 30.998,439.071 34.731,488.739 85.767,488.739 C 115.64,488.739 136.802,456.901 136.802,456.901 C 136.802,456.901 136.802,488.739 155.473,498.928 C 155.473,498.928 180.368,481.097 171.653,453.08 C 171.653,453.08 199.458,505.255 243.848,488.738 C 271.233,478.55 273.722,447.984 273.722,447.984 C 273.722,447.984 230.156,464.541 202.771,433.974 C 202.771,433.974 241.358,455.624 260.029,405.955 C 260.029,405.955 218.954,421.237 196.549,393.221 C 196.549,393.221 238.869,412.324 248.827,366.475 C 248.827,366.475 210.241,379.211 190.324,353.74 C 190.324,353.74 223.932,370.297 241.358,324.449 C 241.358,324.449 202.77,334.637 182.854,311.715 C 182.854,311.715 216.463,324.449 232.644,286.242 C 232.644,286.242 192.813,293.885 177.875,270.959 C 177.875,270.959 211.482,284.969 218.951,241.668 C 218.951,241.668 190.323,258.224 172.897,234.027 C 172.897,234.027 206.503,234.027 210.24,204.736 C 210.24,204.736 187.834,218.745 170.407,204.736 C 170.407,204.736 194.058,197.092 199.036,172.896 C 199.036,172.896 185.344,180.537 169.162,172.896 C 169.162,172.896 192.812,169.076 187.834,139.783 C 187.834,139.783 175.387,151.244 166.672,151.244 C 166.672,151.244 180.365,146.151 175.387,115.585 C 175.387,115.585 167.917,125.774 160.45,127.046 C 160.451,127.045 172.899,93.933 152.982,57 z " />
    <path
       style="fill:#5ab532;stroke:black;stroke-width:3;stroke-linecap:round;stroke-linejoin:round"
       d="M 428.242,420.898 C 428.242,420.898 433.89,696.33 411.45,740.632 C 433.931,731.738 455.081,720.192 474.526,706.387 C 462.045,619.257 466.112,420.898 466.112,420.898 L 428.242,420.898 L 428.242,420.898 z "
       id="path1966" />
    <path
       style="fill:#5ab532;stroke:black;stroke-width:3;stroke-linecap:round;stroke-linejoin:round"
       id="path1969_27_"
       d="M 442.548,127.045 C 435.081,125.773 427.611,115.584 427.611,115.584 C 422.632,146.15 436.325,151.243 436.325,151.243 C 427.611,151.243 415.164,139.782 415.164,139.782 C 410.185,169.075 433.836,172.895 433.836,172.895 C 417.653,180.536 403.962,172.895 403.962,172.895 C 408.94,197.092 432.591,204.735 432.591,204.735 C 415.164,218.744 392.758,204.735 392.758,204.735 C 396.493,234.026 430.101,234.026 430.101,234.026 C 412.675,258.222 384.046,241.667 384.046,241.667 C 391.515,284.968 425.123,270.958 425.123,270.958 C 410.185,293.884 370.354,286.241 370.354,286.241 C 386.535,324.448 420.143,311.714 420.143,311.714 C 400.228,334.637 361.64,324.448 361.64,324.448 C 379.066,370.296 412.674,353.739 412.674,353.739 C 392.757,379.211 354.171,366.474 354.171,366.474 C 364.129,412.323 406.449,393.22 406.449,393.22 C 384.044,421.237 342.969,405.954 342.969,405.954 C 361.639,455.623 400.227,433.973 400.227,433.973 C 372.842,464.539 329.276,447.983 329.276,447.983 C 329.276,447.983 331.765,478.549 359.15,488.737 C 403.54,505.254 431.344,453.079 431.344,453.079 C 422.63,481.096 447.525,498.927 447.525,498.927 C 466.196,488.738 466.196,456.9 466.196,456.9 C 466.196,456.9 487.357,488.738 517.23,488.738 C 568.266,488.738 572,439.07 572,439.07 C 538.393,465.815 506.029,439.07 506.029,439.07 C 547.104,453.081 554.573,408.505 554.573,408.505 C 507.275,427.608 488.604,393.223 488.604,393.223 C 532.168,412.325 540.882,365.203 540.882,365.203 C 502.295,386.854 483.624,353.742 483.624,353.742 C 522.211,369.024 529.68,326.996 529.68,326.996 C 498.561,344.826 477.402,309.166 477.402,309.166 C 523.456,326.996 524.701,286.242 524.701,286.242 C 489.848,297.705 473.667,269.685 473.667,269.685 C 511.01,278.601 513.498,246.761 513.498,246.761 C 484.868,254.402 474.911,239.119 474.911,239.119 C 504.786,240.391 509.764,211.1 509.764,211.1 C 489.849,223.834 469.934,207.28 469.934,207.28 C 496.071,204.733 499.807,177.987 499.807,177.987 C 484.869,185.629 469.934,176.715 469.934,176.715 C 493.582,170.346 493.582,142.328 493.582,142.328 C 481.136,156.337 464.954,152.516 464.954,152.516 C 484.869,133.412 477.402,113.036 477.402,113.036 C 471.176,127.044 457.485,128.318 457.485,128.318 C 469.933,104.12 453.751,72.281 450.017,56.999 C 430.101,93.933 442.549,127.045 442.548,127.045 z " />
    <path
       style="fill:none;fill-rule:evenodd;stroke:black;stroke-width:3;stroke-linecap:butt;stroke-linejoin:miter;stroke-miterlimit:4;stroke-dasharray:none;stroke-opacity:1"
       d="M 301.50081,761.5 L 301.50081,1.5"
       id="path2894" />
  </g>
  <g
     inkscape:groupmode="layer"
     id="layer3"
     inkscape:label="Reflet final"
     style="display:inline"
     sodipodi:insensitive="true">
    <path
       style="fill:url(#radialGradient3236);fill-opacity:1"
       d="M 1.5,1.5 L 1.5,460.3679 C 1.5,626.67854 135.81454,761.5 301.49993,761.5 C 467.1854,761.5 601.5,626.67854 601.5,460.3679 L 601.5,1.5 L 1.5,1.5 z "
       id="path2346" />
  </g>
  <g
     inkscape:groupmode="layer"
     id="layer4"
     inkscape:label="Contour final"
     style="display:inline"
     sodipodi:insensitive="true">
    <path
       style="fill:none;fill-opacity:1;stroke:#000000;stroke-width:3;stroke-miterlimit:4;stroke-dasharray:none;stroke-opacity:1"
       d="M 1.5,1.5 L 1.5,460.36794 C 1.5,626.67854 135.81454,761.5 301.49993,761.5 C 467.1854,761.5 601.5,626.67854 601.5,460.36794 L 601.5,1.5 L 1.5,1.5 z "
       id="path3239" />
  </g>
</svg>
